X: 122006
T: FRENCH AIR
P: Same figure.
%R: reel
B: James Kerr "Merry Melodies" v.1 p.22 s.0 #6
Z: 2017 John Chambers <jc:trillian.mit.edu>
M: 2/4
L: 1/16
K: D
uA2 |\
d2(3(edc) d2A2 | F2A2A2z2 |\
d2(3(edc) d2B2 | G2B2B2z2 |\
d2(3(edc) d2A2 | f2f2d2d2 |\
e2e2c2c2 | d2z2 d2 |]\
uA2 |\
d2d2e2f2 | dedc B2c2 |
A2d2c2d2 | e4 z2A2 |\
e2f2e2B2 | cdcB A2f2 |\
e2d2 F2^G2 | A2z2 vF2A2 |\
F2A2d2d2 | c2z2 E2G2 |\
F2A2c2B2 | A2z2 F2A2 |\
F2A2f2f2 |
e2z2 d2d2 |\
c2c2 d2cd | e2AA A2A2 ||\
d3dd2A2 | F2A2A2z2 |\
d3dd2B2 | G2B2B2z2 |\
d3dd2d2 | f2f2d2d2 |\
e2e2c2c2 | d2z2 d2 |]

%%sep 1 1 500
%%sep 1 1 500

